assets/images/about/4/icon_4_part_1.svg

<svg xmlns="http://www.w3.org/2000/svg" viewBox="0 0 373.9 206.52"><defs><style>.cls-1{fill:#fff}</style></defs><g id="Слой_2" data-name="Слой 2"><g id="Слой_1-2" data-name="Слой 1"><path class="cls-1" d="M294.12 136.05a37.79 37.79 0 1 1 37.79-37.79 37.79 37.79 0 0 1-37.79 37.79zm0-73.57a35.79 35.79 0 1 0 35.79 35.79 35.82 35.82 0 0 0-35.79-35.79zM186.83 206.52A16.57 16.57 0 1 1 203.4 190a16.59 16.59 0 0 1-16.57 16.52zm0-31.13A14.57 14.57 0 1 0 201.4 190a14.57 14.57 0 0 0-14.57-14.61zm-88.97 31.13H86.39a18.89 18.89 0 0 1-17.63-11.93L1.34 26A19 19 0 0 1 19 0h11a19.07 19.07 0 0 1 17.71 12.23l42.08 110.44a4.07 4.07 0 0 0 3.89 2.68 4.07 4.07 0 0 0 3.88-2.74l40-110.11A19 19 0 0 1 155.47 0h8.13a19 19 0 0 1 17.68 25.88l-65.73 168.56a18.88 18.88 0 0 1-17.69 12.08zM19 2A17 17 0 0 0 3.2 25.29l67.42 168.56a16.91 16.91 0 0 0 15.77 10.67h11.47a16.88 16.88 0 0 0 15.83-10.81l65.73-168.55a16.75 16.75 0 0 0-1.8-15.76 16.75 16.75 0 0 0-14-7.4h-8.13a17 17 0 0 0-16 11.18l-40 110.11a6.13 6.13 0 0 1-5.75 4.06 6.1 6.1 0 0 1-5.75-4L45.84 12.94A17.08 17.08 0 0 0 30 2z"/><path class="cls-1" d="M294.12 178a79.78 79.78 0 1 1 79.78-79.78A79.78 79.78 0 0 1 294.12 178zm0-157.56a77.78 77.78 0 1 0 77.78 77.78 77.78 77.78 0 0 0-77.78-77.78z"/></g></g></svg>

<svg xmlns="http://www.w3.org/2000/svg" viewBox="0 0 373.9 206.52"><defs><style>.cls-1{fill:#fff;}</style></defs><title>icon_4_part_1</title><g id="Слой_2" data-name="Слой 2"><g id="Слой_1-2" data-name="Слой 1"><path class="cls-1" d="M294.12,136.05a37.79,37.79,0,1,1,37.79-37.79A37.79,37.79,0,0,1,294.12,136.05Zm0-73.57a35.79,35.79,0,1,0,35.79,35.79h0A35.82,35.82,0,0,0,294.12,62.48Z"/><path class="cls-1" d="M186.83,206.52A16.57,16.57,0,1,1,203.4,190V190A16.59,16.59,0,0,1,186.83,206.52Zm0-31.13A14.57,14.57,0,1,0,201.4,190a14.57,14.57,0,0,0-14.57-14.61Z"/><path class="cls-1" d="M97.86,206.52H86.39a18.89,18.89,0,0,1-17.63-11.93L1.34,26A19,19,0,0,1,19,0H30A19.07,19.07,0,0,1,47.71,12.23L89.79,122.67a4.07,4.07,0,0,0,3.89,2.68h0a4.07,4.07,0,0,0,3.88-2.74l40-110.11A19,19,0,0,1,155.47,0h8.13a19,19,0,0,1,17.68,25.88L115.55,194.44A18.88,18.88,0,0,1,97.86,206.52ZM19,2A17,17,0,0,0,3.2,25.29L70.62,193.85a16.91,16.91,0,0,0,15.77,10.67H97.86a16.88,16.88,0,0,0,15.83-10.81L179.42,25.16a16.75,16.75,0,0,0-1.8-15.76,16.75,16.75,0,0,0-14-7.4h-8.13a17,17,0,0,0-16,11.18l-40,110.11a6.13,6.13,0,0,1-5.75,4.06h0a6.1,6.1,0,0,1-5.75-4L45.84,12.94A17.08,17.08,0,0,0,30,2Z"/><path class="cls-1" d="M294.12,178A79.78,79.78,0,1,1,373.9,98.22,79.78,79.78,0,0,1,294.12,178Zm0-157.56A77.78,77.78,0,1,0,371.9,98.22a77.78,77.78,0,0,0-77.78-77.78Z"/></g></g></svg>
